X:1
T:Title
%%score { ( 1 3 ) | ( 2 4 ) }
L:1/8
M:4/4
K:G
V:1 treble nm="Grand Piano"
V:3 treble 
V:2 treble 
V:4 treble 
V:1
 z4 z2[Q:1/4=92] B>c | d>d (3^cde d>B [DB]>[DA] | [EG]>[EA] (3[EG][DF][CE] [B,D]2 [DG]>A | %3
 B>B B>B B>B (3[G-^c][GB][Gc] | d6 z2 | d>d (3^cde d>B [DB]>[DA] | %6
 [EG]>[EA] (3[EG][DF][CE] [B,D]2 [DG]>A | B>d [EA]>[Ec] G<B F>A |[M:3/4] G6 |[M:1/4] G>B | %10
[M:4/4] d6 z2 | G4 z4 | G>F F>G A2 [FA]>[FB] | A>G G>A B2 G>B | d6 z2 | z z/ D/ E>E D2 [Ge]>[Ge] | %16
 [Gd]<[GB]- [GB]2 [FB]3 [CFA] |[M:3/4] [G,G]2- [G,-EG-]>[G,-EG-] [G,DG]2 |] %18
V:2
 z4 z2 [G,DG]>[G,CG] | %1
 [G,B,G]>[G,B,G] (3:2:2[G,_B,G]2 [G,B,G] [G,=B,G]>[G,DG][K:bass] [G,,G,]>[B,,G,] | %2
 [C,G,]>[C,G,] (3:2:2[C,G,]2 [C,G,] [G,,G,]2 [B,,G,]>[D,F,D] | %3
 [G,D]>[G,D] [F,A,^D]>[F,A,D] [E,G,E]>[E,G,E] (3:2:2[A,,A,]2 [A,,A,] | %4
 D,2- [D,-B,]>[D,-B,] [D,C]2[K:treble] [G,B,G]>[G,A,G] | %5
 [G,B,G]>[G,B,G] (3:2:2[G,_B,G]2 [G,B,G] [G,=B,G]>[G,DG][K:bass] [G,,G,]>[B,,G,] | %6
 [C,G,]>[C,G,] (3:2:2[C,G,]2 [C,G,] [G,,G,]2 [B,,G,]>[D,F,D] | %7
 [G,D]>[G,B,=F][K:bass] [C,C]>[C,A,] [D,B,D]<[D,G,D] [D,A,D]>[D,CD] | %8
[M:3/4][K:treble] [B,D]2 C>C B,2 |[M:1/4] [G,B,D]>[G,DG] | %10
[M:4/4] [G,B,G]>[G,B,] [^G,B,]>[G,B,] [A,C]>[A,CF][K:bass] [D,C]>[D,D] | %11
 [G,B,D]>[G,B,] [G,C]>[G,C] [G,B,]2 [G,B,D]>[G,B,D] | %12
 [A,CD]>[A,CD] [A,CD]>[G,CD] [F,CD]2 [D,C]>[D,D] | %13
 [G,CF]>[G,B,] [G,B,]>[G,CG] [G,DG]2 [G,B,D]>[G,DG] | %14
 [G,B,G]>[G,B,] [^G,B,]>[G,B,] [A,C]>[A,CF][K:bass] [D,C]>[D,D] | %15
 [G,B,D]>[G,B,] [G,C]>[G,C] [G,B,]2 [C,C]>[C,C] | [D,B,]<[D,D]- [D,D]2 [D,D]3 D, | %17
[M:3/4] z2 C>C B,2 |] %18
V:3
 x8 | x8 | x8 | x8 | F2 G>G A2 B>c | x8 | x8 | x8 |[M:3/4] z2 E>E D2 |[M:1/4] x2 | %10
[M:4/4] z z/ G/ =F>F ^F>c [FA]>[FB] | z z/ D/ E>E D2 G>A | x8 | x8 | z z/ G/ =F>F ^F>c [FA]>[FB] | %15
 G4 z4 | x8 |[M:3/4] B,2 z2 z2 |] %18
V:4
 x8 | x6[K:bass] x2 | x8 | x8 | A,2 z2 z4[K:treble] | x6[K:bass] x2 | x8 | x2[K:bass] x6 | %8
[M:3/4][K:treble] G,6 |[M:1/4] x2 |[M:4/4] x6[K:bass] x2 | x8 | x8 | x8 | x6[K:bass] x2 | x8 | x8 | %17
[M:3/4] G,,6 |] %18

